packages/ui-solid/icons/quote_12.svg

<svg width="12" height="12" viewBox="0 0 12 12" fill="none" xmlns="http://www.w3.org/2000/svg">
<path d="M3.06801 7.70898C3.21287 7.33648 2.92566 6.95777 2.57177 6.77201C1.93461 6.43756 1.5 5.76953 1.5 5C1.5 3.89543 2.39543 3 3.5 3C4.60206 3 5.49594 3.89137 5.49999 4.99248C5.5 4.99499 5.50001 4.99749 5.50001 5C5.50001 6.54807 5.22855 7.67136 4.93202 8.43388C4.78422 8.81393 4.63168 9.10051 4.50706 9.30228C4.44482 9.40305 4.38972 9.48239 4.34589 9.54141C4.32399 9.57092 4.30491 9.59534 4.28919 9.6148C4.28287 9.62262 4.26705 9.64137 4.25789 9.65222C4.25564 9.65488 4.25259 9.6585 4.25259 9.6585C3.88891 10.0741 3.25715 10.1163 2.84151 9.75258C2.43082 9.39322 2.38481 8.77213 2.73463 8.35642L2.74007 8.34921C2.75094 8.33458 2.77396 8.3023 2.80547 8.25129C2.86835 8.14949 2.96581 7.97178 3.06801 7.70898Z" fill="#007AFF"/>
<path d="M4.25968 9.65032L4.25423 9.65663L4.25596 9.65464L4.25968 9.65032Z" fill="#007AFF"/>
<path d="M8.06801 7.70898C8.21287 7.33648 7.92566 6.95777 7.57177 6.77201C6.93461 6.43756 6.5 5.76953 6.5 5C6.5 3.89543 7.39543 3 8.5 3C9.60206 3 10.4959 3.89137 10.5 4.99248C10.5 4.99499 10.5 4.99749 10.5 5C10.5 6.54807 10.2286 7.67136 9.93202 8.43388C9.78422 8.81393 9.63168 9.10051 9.50706 9.30228C9.44482 9.40305 9.38972 9.48239 9.34589 9.54141C9.32399 9.57092 9.30491 9.59534 9.28919 9.6148C9.28287 9.62262 9.26705 9.64137 9.25789 9.65222C9.25564 9.65488 9.25259 9.6585 9.25259 9.6585C8.88891 10.0741 8.25715 10.1163 7.84151 9.75258C7.43082 9.39322 7.38481 8.77213 7.73463 8.35642L7.74007 8.34921C7.75094 8.33458 7.77396 8.3023 7.80547 8.25129C7.86835 8.14949 7.96581 7.97178 8.06801 7.70898Z" fill="#007AFF"/>
<path d="M9.25968 9.65032L9.25423 9.65663L9.25596 9.65464L9.25968 9.65032Z" fill="#007AFF"/>
</svg>

<svg xmlns="http://www.w3.org/2000/svg" width="12" height="12" fill="none"><path fill="currentColor" d="M3.068 7.709c.145-.373-.142-.751-.496-.937A2 2 0 1 1 5.5 4.992V5c0 1.548-.271 2.671-.568 3.434-.148.38-.3.667-.425.868a3 3 0 0 1-.25.35l-.004.007a1 1 0 0 1-1.518-1.303l.005-.007q.017-.021.065-.098c.063-.102.16-.28.263-.542"/><path fill="currentColor" d="m4.26 9.65-.006.007.002-.002zm3.808-1.941c.145-.373-.142-.751-.496-.937a2 2 0 1 1 2.928-1.78V5c0 1.548-.271 2.671-.568 3.434-.148.38-.3.667-.425.868a3 3 0 0 1-.25.35l-.004.007a1 1 0 0 1-1.518-1.303l.005-.007q.017-.021.065-.098c.063-.102.16-.28.263-.542"/><path fill="currentColor" d="m9.26 9.65-.006.007.002-.002z"/></svg>
